src/landing/containers/MainScreen/components/Advantages/assets/exchange.svg

<svg width="120" height="120" viewBox="0 0 120 120" fill="none" xmlns="http://www.w3.org/2000/svg">
    <path d="M84.4828 76.8153C82.6915 76.8153 81.1338 77.8153 80.4328 79.2363L79.9915 76.3416C79.9915 74.0258 77.9925 72.1311 75.5002 72.1311C73.0338 72.1311 71.0088 73.9995 71.0088 76.3416C71.0088 75.9732 71.0088 74.6047 71.0088 74.2363C71.0088 71.9205 69.0098 70.0258 66.5175 70.0258C64.0252 70.0258 62.0261 71.8942 62.0261 74.2363V57.4469C62.0261 55.1311 60.0271 53.2363 57.5348 53.2363C55.0684 53.2363 53.0434 55.1047 53.0434 57.4469V74.2363V76.3416V89.9732C47.3059 87.2363 44.7098 86.8153 41.828 86.8153C38.479 86.8153 35.104 88.0258 35.104 92.0258L45.203 96.2626L52.2905 102.894C55.6655 106.052 60.2088 107.815 64.9857 107.815H79.9915C84.9502 107.815 88.9742 104.052 88.9742 99.4205V81.0258C88.9482 78.71 86.9492 76.8153 84.4828 76.8153Z" fill="url(#paint0_linear)"/>
    <path fill-rule="evenodd" clip-rule="evenodd" d="M39.7646 59.9521C39.8169 59.8463 39.8692 59.7405 39.8954 59.6612V59.6347C39.9085 59.5818 39.9215 59.5355 39.9346 59.4893C39.9477 59.443 39.9608 59.3967 39.9739 59.3438V59.2909C40 59.1851 40 59.0793 40 59C40 58.9207 40 58.7884 39.9739 58.7091V58.6562C39.9477 58.5504 39.9215 58.4446 39.8954 58.3653V58.3388C39.8823 58.286 39.8627 58.2397 39.8431 58.1934C39.8235 58.1471 39.8039 58.1008 39.7908 58.0479V58.0215C39.7385 57.9157 39.6862 57.8364 39.6339 57.757C39.6339 57.757 39.6339 57.7306 39.6077 57.7306L29.1736 43.8463C28.7814 43.3174 28.1538 43 27.5 43C26.8462 43 26.2186 43.3174 25.8264 43.8463L15.3923 57.7306C15.3923 57.7306 15.3923 57.757 15.3661 57.757C15.356 57.7723 15.345 57.7886 15.3335 57.8054C15.2855 57.8761 15.2303 57.9574 15.2092 58.0215V58.0479C15.1569 58.1273 15.1308 58.2331 15.1046 58.3388V58.3653C15.0915 58.4182 15.0785 58.4645 15.0654 58.5107C15.0523 58.557 15.0392 58.6033 15.0262 58.6562V58.7091C15 58.8149 15 58.9207 15 59C15 59.0793 15 59.2116 15.0262 59.2909V59.3438C15.0523 59.4496 15.0785 59.5554 15.1046 59.6347V59.6612C15.1177 59.7141 15.1373 59.7603 15.1569 59.8066C15.1765 59.8529 15.1961 59.8992 15.2092 59.9521V59.9785C15.2615 60.0843 15.3138 60.1636 15.3661 60.243C15.3661 60.243 15.3661 60.2694 15.3923 60.2694L25.8264 74.1537C26.2186 74.6826 26.8462 75 27.5 75C28.1538 75 28.7814 74.6826 29.1736 74.1537L39.6077 60.2694C39.6077 60.2694 39.6077 60.243 39.6339 60.243C39.66 60.1372 39.7123 60.0314 39.7646 59.9521ZM27.4738 48.5537L33.6977 56.8314H21.25L27.4738 48.5537ZM21.25 61.0892L27.4738 69.3669L33.6977 61.0892H21.25Z" fill="url(#paint1_linear)"/>
    <path fill-rule="evenodd" clip-rule="evenodd" d="M83.1296 34H91.4618C98.3565 34 104 39.3758 104 46C104 52.6242 98.3831 58 91.4618 58H83.1296C81.9583 58 81 57.0828 81 55.9618V36.0382C81 34.9172 81.9583 34 83.1296 34ZM85.2593 53.8981H91.4618C96.0139 53.8981 99.7408 50.3821 99.7408 46C99.7408 41.6178 96.0139 38.0764 91.4618 38.0764H85.2593V43.9363H92.5C93.6713 43.9363 94.6296 44.8535 94.6296 45.9745C94.6296 47.0955 93.6713 48.0127 92.5 48.0127H85.2593V53.8981Z" fill="url(#paint2_linear)"/>
    <path fill-rule="evenodd" clip-rule="evenodd" d="M69 22.7588C69 19.3983 66.5817 16.6109 63.443 16.0378V14.084C63.443 12.9378 62.5168 12 61.3848 12C60.2528 12 59.3266 12.9378 59.3266 14.084V15.9336H57.4485V14.084C57.4485 12.9378 56.5224 12 55.3904 12C54.2584 12 53.3322 12.9378 53.3322 14.084V15.9336H48.0582C46.9262 15.9336 46 16.8714 46 18.0176C46 19.1639 46.9262 20.1017 48.0582 20.1017H50.1163V34.8983H48.0582C46.9262 34.8983 46 35.8361 46 36.9824C46 38.1286 46.9262 39.0664 48.0582 39.0664H53.3322V40.916C53.3322 42.0622 54.2584 43 55.3904 43C56.5224 43 57.4485 42.0622 57.4485 40.916V39.0664H59.3266V40.916C59.3266 42.0622 60.2528 43 61.3848 43C62.5168 43 63.443 42.0622 63.443 40.916V38.9622C66.6074 38.4151 69 35.6017 69 32.2412C69 30.3916 68.2796 28.7244 67.0962 27.5C68.2796 26.2756 69 24.6084 69 22.7588ZM62.2595 20.1277C63.7002 20.1277 64.8836 21.3261 64.8836 22.7849C64.8836 24.2437 63.7002 25.442 62.2595 25.442H54.2069V20.1277H62.2595ZM54.2069 34.8983H62.2595C63.7002 34.8983 64.8836 33.7261 64.8836 32.2412C64.8836 30.7824 63.7002 29.584 62.2595 29.584H54.2069V34.8983Z" fill="url(#paint3_linear)"/>
    <defs>
        <linearGradient id="paint0_linear" x1="88.9742" y1="53.2363" x2="88.9742" y2="107.815" gradientUnits="userSpaceOnUse">
            <stop stop-color="#4070FF"/>
            <stop offset="1" stop-color="#365FD9"/>
        </linearGradient>
        <linearGradient id="paint1_linear" x1="40" y1="43" x2="40" y2="75" gradientUnits="userSpaceOnUse">
            <stop stop-color="#FFA526"/>
            <stop offset="1" stop-color="#FF860D"/>
        </linearGradient>
        <linearGradient id="paint2_linear" x1="104" y1="34" x2="104" y2="58" gradientUnits="userSpaceOnUse">
            <stop stop-color="#FFA526"/>
            <stop offset="1" stop-color="#FF860D"/>
        </linearGradient>
        <linearGradient id="paint3_linear" x1="69" y1="12" x2="69" y2="43" gradientUnits="userSpaceOnUse">
            <stop stop-color="#FFA526"/>
            <stop offset="1" stop-color="#FF860D"/>
        </linearGradient>
    </defs>
</svg>

<svg width="120" height="120" fill="none" xmlns="http://www.w3.org/2000/svg"><path d="M84.483 76.815c-1.791 0-3.35 1-4.05 2.421l-.442-2.894c0-2.316-1.998-4.21-4.49-4.21-2.467 0-4.492 1.867-4.492 4.21v-2.106c0-2.316-2-4.21-4.492-4.21s-4.49 1.868-4.49 4.21v-16.79c0-2.315-2-4.21-4.492-4.21-2.467 0-4.492 1.869-4.492 4.21v32.527c-5.737-2.737-8.333-3.158-11.215-3.158-3.349 0-6.724 1.21-6.724 5.21l10.099 4.238 7.087 6.631c3.376 3.158 7.919 4.921 12.696 4.921H79.99c4.96 0 8.983-3.763 8.983-8.394V81.026c-.026-2.316-2.025-4.21-4.491-4.21z" fill="url(#paint0_linear)"/><path fill-rule="evenodd" clip-rule="evenodd" d="M39.765 59.952c.052-.106.104-.212.13-.29v-.027c.013-.053.026-.1.04-.146.013-.046.026-.092.039-.145v-.053C40 59.185 40 59.079 40 59c0-.08 0-.212-.026-.29v-.054a3.722 3.722 0 00-.079-.29v-.027a.897.897 0 00-.052-.146c-.02-.046-.04-.092-.052-.145v-.026c-.052-.106-.105-.186-.157-.265 0 0 0-.026-.026-.026L29.174 43.846A2.098 2.098 0 0027.5 43c-.654 0-1.281.317-1.674.846L15.392 57.731s0 .026-.026.026a3.51 3.51 0 01-.032.048c-.048.071-.104.152-.125.217v.026c-.052.08-.078.185-.104.29v.027a4.33 4.33 0 01-.04.146c-.013.046-.026.092-.039.145v.053C15 58.815 15 58.921 15 59c0 .08 0 .212.026.29v.054c.026.106.053.211.079.29v.027c.013.053.032.1.052.146.02.046.04.092.052.145v.026c.053.106.105.186.157.265 0 0 0 .026.026.026l10.434 13.885c.393.529 1.02.846 1.674.846.654 0 1.281-.317 1.674-.846l10.434-13.885s0-.026.026-.026a.98.98 0 01.13-.29zM27.474 48.554l6.224 8.277H21.25l6.224-8.277zM21.25 61.089l6.224 8.278 6.224-8.278H21.25z" fill="url(#paint1_linear)"/><path fill-rule="evenodd" clip-rule="evenodd" d="M83.13 34h8.332C98.356 34 104 39.376 104 46s-5.617 12-12.538 12H83.13c-1.172 0-2.13-.917-2.13-2.038V36.038c0-1.12.958-2.038 2.13-2.038zm2.13 19.898h6.202c4.552 0 8.279-3.516 8.279-7.898s-3.727-7.924-8.28-7.924H85.26v5.86h7.24c1.171 0 2.13.917 2.13 2.038 0 1.122-.959 2.039-2.13 2.039h-7.24v5.885z" fill="url(#paint2_linear)"/><path fill-rule="evenodd" clip-rule="evenodd" d="M69 22.759c0-3.36-2.418-6.148-5.557-6.721v-1.954c0-1.146-.926-2.084-2.058-2.084-1.132 0-2.058.938-2.058 2.084v1.85h-1.878v-1.85c0-1.146-.927-2.084-2.059-2.084-1.132 0-2.058.938-2.058 2.084v1.85h-5.274c-1.132 0-2.058.937-2.058 2.084 0 1.146.926 2.084 2.058 2.084h2.058v14.796h-2.058c-1.132 0-2.058.938-2.058 2.084 0 1.147.926 2.084 2.058 2.084h5.274v1.85c0 1.146.926 2.084 2.058 2.084 1.132 0 2.059-.938 2.059-2.084v-1.85h1.878v1.85c0 1.146.926 2.084 2.058 2.084 1.132 0 2.058-.938 2.058-2.084v-1.954c3.164-.547 5.557-3.36 5.557-6.72 0-1.85-.72-3.518-1.904-4.742A6.784 6.784 0 0069 22.759zm-6.74-2.631c1.44 0 2.624 1.198 2.624 2.657s-1.184 2.657-2.624 2.657h-8.053v-5.314h8.053zm-8.053 14.77h8.053c1.44 0 2.624-1.172 2.624-2.657 0-1.459-1.184-2.657-2.624-2.657h-8.053v5.314z" fill="url(#paint3_linear)"/><defs><linearGradient id="paint0_linear" x1="88.974" y1="53.236" x2="88.974" y2="107.815" gradientUnits="userSpaceOnUse"><stop stop-color="#4070FF"/><stop offset="1" stop-color="#365FD9"/></linearGradient><linearGradient id="paint1_linear" x1="40" y1="43" x2="40" y2="75" gradientUnits="userSpaceOnUse"><stop stop-color="#FFA526"/><stop offset="1" stop-color="#FF860D"/></linearGradient><linearGradient id="paint2_linear" x1="104" y1="34" x2="104" y2="58" gradientUnits="userSpaceOnUse"><stop stop-color="#FFA526"/><stop offset="1" stop-color="#FF860D"/></linearGradient><linearGradient id="paint3_linear" x1="69" y1="12" x2="69" y2="43" gradientUnits="userSpaceOnUse"><stop stop-color="#FFA526"/><stop offset="1" stop-color="#FF860D"/></linearGradient></defs></svg>
